X: 18548
T: I Have No Money
R: reel
M: 4/4
K: Dmajor
FAdB A3G|FAdA FE E2|FAdB ABdf|afeg fddA|
FAdB A3G|FAdA FE E2|FAdB ABdf|afeg fddf||
afef dcdf|afeg fB B2|afef dcdB|ABAG FDDf|
afef dcdf|afeg fB B2|afge dedB|ABAG FDDE||

